T: Aughnahoo
M: 6/8
L: 1/8
K: Dmaj
|: ABA F2D|ABA FAD| GFG EG=C|GFG AFG|
ABA F2D|ABA FAd| efd edB|AFD D3 :|
